X:3061
T:Cl. Stewart's Quadrille. GS.106
M:2/4
L:1/16
Q:100
S:George Spencer m/s, Leeds,1831
R:Quadrille
O:England
A:Leeds
N:'George Spencer' is written on the stave after the last double bar.
N:ABC2Win doesn't like reading Chords, and always messes them up. .
N:  $ is conventional  dal segno..  pause is written as conventional sign
N:over bar line,  ff is written under the double bar  $ is written on the
N:stave after the last double bar, Da Capo is written underneath..
H:1831
Z:vmp.Cherri Graebe
K:F major
"$"AB | c2f2d2f2 | cdcB A2[A2c2] | [G2B2][G2B2][F2A2][F2A2] | [C6G6] AB
 | 
[A2c2]f2d2f2 | cdcB A2c2 |! d2f2e2c2 | [A2f2] "pause-ff" z ||  f2 z2e2z2
 | f6 d2 | c2c2B2A2 |
A2G2 z2 c2 | f2 z2 e2 z2 | fcag fedc |! BAGF G2c2 | BFGA Bcde | fgaf efg
e | fcde fcdf | 
cfac' bgaf | !a2g2z2c2 | fgaf efge | fcde fcdf | cfac' =bc'_bg | [A2f2][
c2a2] "$ Da Capo"[A2f2]|| 


